src/content/images/providers/spotify.svg

<svg height="32" viewBox="0 0 33 32" width="33" xmlns="http://www.w3.org/2000/svg"><path d="m15.9697674 0c-8.80347667 0-15.9395788 7.12258679-15.9395788 15.9093902 0 8.7868035 7.13610213 15.9093903 15.9395788 15.9093903 8.8034768 0 15.9395789-7.1225868 15.9395789-15.9093903 0-8.78571781-7.1361021-15.90830461-15.9395789-15.9093902zm7.3101269 22.9451295c-.2860532.4689769-.8984027.6155322-1.3660942.3300208-3.7426197-2.2830057-8.4543396-2.7986632-14.00246593-1.5339454-.53512609.1226722-1.06807687-.2116909-1.18989419-.7458035-.12290497-.5341126.211005-1.066054.74721874-1.1876406 6.07128828-1.3841332 11.28006638-.7881418 15.48167628 1.7738617.4676915.2876826.6167001.8967012.3295593 1.363507zm1.9501648-4.3304373c-.3600137.58405-1.1257226.7664299-1.7097931.4081836-4.283184-2.6282247-10.8156378-3.3892266-15.88302081-1.8541957-.6569434.1986638-1.35086707-.171524-1.55099552-.8261376-.19795315-.6556992.17293709-1.347223.82879284-1.5469724 5.78849799-1.7532354 12.98550879-.9043004 17.90497079 2.1136529.5851582.3593318.7700595 1.1225049.4100458 1.7054692zm.1674988-4.5117315c-5.1380805-3.0450931-13.6130855-3.3251766-18.51840799-1.840083-.78746197.2388308-1.62060543-.2051774-1.8588018-.991148-.23819636-.7859705.20556673-1.61753608.99411635-1.85636691 5.63078814-1.70546927 14.99005634-1.37653408 20.90472234 2.12776561.7080631.4201251.9408212 1.3331103.5209865 2.0387468-.418747.7078078-1.3356399.9412106-2.0426154.5210855z" fill="#ff0045" transform="translate(.804 .118)"/></svg>

<?xml version="1.0" encoding="UTF-8"?>
<svg width="33px" height="32px" viewBox="0 0 33 32" version="1.1" xmlns="http://www.w3.org/2000/svg" xmlns:xlink="http://www.w3.org/1999/xlink">
    <!-- Generator: Sketch 58 (84663) - https://sketch.com -->
    <title>spotify-2</title>
    <desc>Created with Sketch.</desc>
    <g id="Rework6.0" stroke="none" stroke-width="1" fill="none" fill-rule="evenodd">
        <g id="iPhone-8" transform="translate(-171.000000, -931.000000)" fill="#FF0045" fill-rule="nonzero">
            <g id="Group-17" transform="translate(24.000000, 920.000000)">
                <g id="spotify-2" transform="translate(147.804000, 11.118000)">
                    <path d="M15.9697674,0 C7.16629073,0 0.0301885963,7.12258679 0.0301885963,15.9093902 C0.0301885963,24.6961937 7.16629073,31.8187805 15.9697674,31.8187805 C24.7732442,31.8187805 31.9093463,24.6961937 31.9093463,15.9093902 C31.9093463,7.12367239 24.7732442,0.00108559469 15.9697674,0 Z M23.2798943,22.9451295 C22.9938411,23.4141064 22.3814916,23.5606617 21.9138001,23.2751503 C18.1711804,20.9921446 13.4594605,20.4764871 7.91133417,21.7412049 C7.37620808,21.8638771 6.8432573,21.529514 6.72143998,20.9954014 C6.59853501,20.4612888 6.93244498,19.9293474 7.46865872,19.8077608 C13.539947,18.4236276 18.7487251,19.019619 22.950335,21.5816225 C23.4180265,21.8693051 23.5670351,22.4783237 23.2798943,22.9451295 L23.2798943,22.9451295 Z M25.2300591,18.6146922 C24.8700454,19.1987422 24.1043365,19.3811221 23.520266,19.0228758 C19.237082,16.3946511 12.7046282,15.6336492 7.63724519,17.1686801 C6.98030179,17.3673439 6.28637812,16.9971561 6.08624967,16.3425425 C5.88829652,15.6868433 6.25918676,14.9953195 6.91504251,14.7955701 C12.7035405,13.0423347 19.9005513,13.8912697 24.8200133,16.909223 C25.4051715,17.2685548 25.5900728,18.0317279 25.2300591,18.6146922 Z M25.3975579,14.1029607 C20.2594774,11.0578676 11.7844724,10.7777841 6.87914991,12.2628777 C6.09168794,12.5017085 5.25854448,12.0577003 5.02034811,11.2717297 C4.78215175,10.4857592 5.22591484,9.65419362 6.01446446,9.41536279 C11.6452526,7.70989352 21.0045208,8.03882871 26.9191868,11.5431284 C27.6272499,11.9632535 27.860008,12.8762387 27.4401733,13.5818752 C27.0214263,14.289683 26.1045334,14.5230858 25.3975579,14.1029607 Z" id="Shape"></path>
                </g>
            </g>
        </g>
    </g>
</svg>
